source/img/alarm.svg

<svg width="25" height="30" viewBox="0 0 25 30" fill="none" xmlns="http://www.w3.org/2000/svg">
<ellipse cx="17.7042" cy="9.32987" rx="1.0873" ry="1.08512" fill="white"/>
<ellipse cx="6.83112" cy="9.32987" rx="1.08731" ry="1.08512" fill="white"/>
<ellipse cx="6.83112" cy="22.3512" rx="1.08731" ry="1.08512" fill="white"/>
<ellipse cx="12.2677" cy="24.5215" rx="1.0873" ry="1.08512" fill="white"/>
<ellipse cx="3.56924" cy="15.7748" rx="1.08731" ry="1.08512" fill="white"/>
<ellipse cx="20.9661" cy="15.7748" rx="1.0873" ry="1.08512" fill="white"/>
<ellipse cx="17.7042" cy="22.3512" rx="1.0873" ry="1.08512" fill="white"/>
<mask id="path-8-inside-1_62173_191" fill="white">
<path fill-rule="evenodd" clip-rule="evenodd" d="M17.4215 27.0581C17.8298 26.8622 18.3226 26.9298 18.6385 27.2542L20.4644 29.1292C20.7319 29.4039 21.1734 29.4039 21.441 29.1292C21.6987 28.8645 21.6987 28.4427 21.441 28.1781L20.0843 26.7849C19.6584 26.3475 19.7228 25.6356 20.182 25.2333C22.8238 22.9195 24.5 19.4688 24.5 15.6145C24.5 8.6477 19.0235 3 12.2678 3C5.51218 3 0.0356445 8.6477 0.0356445 15.6145C0.0356445 19.4288 1.67729 22.8477 4.27166 25.1608C4.72438 25.5644 4.78489 26.2708 4.36173 26.7054L2.92757 28.1781C2.66985 28.4427 2.66984 28.8645 2.92756 29.1291C3.19513 29.4039 3.63664 29.4039 3.90421 29.1292L5.78384 27.199C6.10245 26.8718 6.60039 26.8061 7.01021 27.0076C8.60297 27.7907 10.3858 28.229 12.2678 28.229C14.109 28.229 15.8553 27.8095 17.4215 27.0581ZM12.2678 26.8274C18.2728 26.8274 23.1409 21.8072 23.1409 15.6145C23.1409 9.42179 18.2728 4.40161 12.2678 4.40161C6.2628 4.40161 1.39478 9.42179 1.39478 15.6145C1.39478 21.8072 6.2628 26.8274 12.2678 26.8274ZM11.5083 15.298V11.5001V7.94092C11.5083 7.50942 11.8581 7.15963 12.2895 7.15963C12.721 7.15963 13.0708 7.50942 13.0708 7.94092V11.5001V15.298V15.8406V16.1226C13.0708 16.5661 12.7113 16.9257 12.2677 16.9257C11.8483 16.9257 11.5083 16.5857 11.5083 16.1663V15.8406V15.298Z"/>
</mask>
<path fill-rule="evenodd" clip-rule="evenodd" d="M17.4215 27.0581C17.8298 26.8622 18.3226 26.9298 18.6385 27.2542L20.4644 29.1292C20.7319 29.4039 21.1734 29.4039 21.441 29.1292C21.6987 28.8645 21.6987 28.4427 21.441 28.1781L20.0843 26.7849C19.6584 26.3475 19.7228 25.6356 20.182 25.2333C22.8238 22.9195 24.5 19.4688 24.5 15.6145C24.5 8.6477 19.0235 3 12.2678 3C5.51218 3 0.0356445 8.6477 0.0356445 15.6145C0.0356445 19.4288 1.67729 22.8477 4.27166 25.1608C4.72438 25.5644 4.78489 26.2708 4.36173 26.7054L2.92757 28.1781C2.66985 28.4427 2.66984 28.8645 2.92756 29.1291C3.19513 29.4039 3.63664 29.4039 3.90421 29.1292L5.78384 27.199C6.10245 26.8718 6.60039 26.8061 7.01021 27.0076C8.60297 27.7907 10.3858 28.229 12.2678 28.229C14.109 28.229 15.8553 27.8095 17.4215 27.0581ZM12.2678 26.8274C18.2728 26.8274 23.1409 21.8072 23.1409 15.6145C23.1409 9.42179 18.2728 4.40161 12.2678 4.40161C6.2628 4.40161 1.39478 9.42179 1.39478 15.6145C1.39478 21.8072 6.2628 26.8274 12.2678 26.8274ZM11.5083 15.298V11.5001V7.94092C11.5083 7.50942 11.8581 7.15963 12.2895 7.15963C12.721 7.15963 13.0708 7.50942 13.0708 7.94092V11.5001V15.298V15.8406V16.1226C13.0708 16.5661 12.7113 16.9257 12.2677 16.9257C11.8483 16.9257 11.5083 16.5857 11.5083 16.1663V15.8406V15.298Z" fill="white"/>
<path d="M5.78384 27.199L8.64954 29.9896L5.78384 27.199ZM7.01021 27.0076L8.77505 23.418L7.01021 27.0076ZM3.90421 29.1292L1.03851 26.3385L3.90421 29.1292ZM2.92757 28.1781L5.79325 30.9687L2.92757 28.1781ZM20.0843 26.7849L17.2186 29.5756L20.0843 26.7849ZM20.182 25.2333L17.5465 22.2243L20.182 25.2333ZM4.27166 25.1608L1.60971 28.1464L4.27166 25.1608ZM4.36173 26.7054L1.49605 23.9147L4.36173 26.7054ZM21.441 28.1781L24.3067 25.3874L21.441 28.1781ZM20.4644 29.1292L23.3301 26.3385L20.4644 29.1292ZM18.6385 27.2542L15.7728 30.0449L18.6385 27.2542ZM17.4215 27.0581L15.6913 23.4516L17.4215 27.0581ZM15.7728 30.0449L17.5987 31.9198L23.3301 26.3385L21.5042 24.4636L15.7728 30.0449ZM24.3067 25.3874L22.95 23.9942L17.2186 29.5756L18.5753 30.9688L24.3067 25.3874ZM22.8175 28.2423C26.3075 25.1855 28.5 20.6466 28.5 15.6145H20.5C20.5 18.2911 19.3401 20.6534 17.5465 22.2243L22.8175 28.2423ZM28.5 15.6145C28.5 6.5555 21.3478 -1 12.2678 -1V7C16.6992 7 20.5 10.7399 20.5 15.6145H28.5ZM12.2678 -1C3.18789 -1 -3.96436 6.5555 -3.96436 15.6145H4.03564C4.03564 10.7399 7.83647 7 12.2678 7V-1ZM-3.96436 15.6145C-3.96436 20.5943 -1.81704 25.0912 1.60971 28.1464L6.93361 22.1752C5.17162 20.6042 4.03564 18.2633 4.03564 15.6145H-3.96436ZM1.49605 23.9147L0.0618826 25.3874L5.79325 30.9687L7.22742 29.496L1.49605 23.9147ZM6.76991 31.9198L8.64954 29.9896L2.91814 24.4083L1.03851 26.3385L6.76991 31.9198ZM5.24538 30.5972C7.37221 31.6429 9.75726 32.229 12.2678 32.229V24.229C11.0143 24.229 9.83373 23.9385 8.77505 23.418L5.24538 30.5972ZM12.2678 32.229C14.7236 32.229 17.0598 31.6681 19.1517 30.6645L15.6913 23.4516C14.6508 23.9508 13.4944 24.229 12.2678 24.229V32.229ZM12.2678 30.8274C20.5971 30.8274 27.1409 23.8994 27.1409 15.6145H19.1409C19.1409 19.715 15.9485 22.8274 12.2678 22.8274V30.8274ZM27.1409 15.6145C27.1409 7.32959 20.5971 0.401611 12.2678 0.401611V8.40161C15.9485 8.40161 19.1409 11.514 19.1409 15.6145H27.1409ZM12.2678 0.401611C3.93851 0.401611 -2.60522 7.32959 -2.60522 15.6145H5.39478C5.39478 11.514 8.58709 8.40161 12.2678 8.40161V0.401611ZM-2.60522 15.6145C-2.60522 23.8994 3.93851 30.8274 12.2678 30.8274V22.8274C8.58709 22.8274 5.39478 19.715 5.39478 15.6145H-2.60522ZM9.07083 15.298V15.8406H17.0708V15.298H9.07083ZM9.07083 15.8406V16.1226H17.0708V15.8406H9.07083ZM15.5083 16.1663V15.8406H7.50826V16.1663H15.5083ZM15.5083 15.8406V15.298H7.50826V15.8406H15.5083ZM15.5083 15.298V11.5001H7.50826V15.298H15.5083ZM15.5083 11.5001V7.94092H7.50826V11.5001H15.5083ZM9.07083 7.94092V11.5001H17.0708V7.94092H9.07083ZM9.07083 11.5001V15.298H17.0708V11.5001H9.07083ZM12.2895 3.15963C9.64891 3.15963 7.50826 5.30029 7.50826 7.94092H15.5083C15.5083 9.71856 14.0672 11.1596 12.2895 11.1596V3.15963ZM9.07083 16.1226C9.07083 14.357 10.5021 12.9257 12.2677 12.9257V20.9257C14.9204 20.9257 17.0708 18.7753 17.0708 16.1226H9.07083ZM8.64954 29.9896C7.65685 31.009 6.2521 31.0922 5.24538 30.5972L8.77505 23.418C6.94868 22.52 4.54805 22.7346 2.91814 24.4083L8.64954 29.9896ZM0.0618541 31.9198C1.89966 33.807 4.9321 33.807 6.76991 31.9198L1.03851 26.3385C2.34118 25.0008 4.49061 25.0008 5.79327 26.3385L0.0618541 31.9198ZM0.0618826 25.3874C-1.70825 27.2051 -1.70826 30.1021 0.0618541 31.9198L5.79327 26.3385C7.04795 27.6269 7.04794 29.6803 5.79325 30.9687L0.0618826 25.3874ZM22.95 23.9942C24.2927 25.3731 23.894 27.2994 22.8175 28.2423L17.5465 22.2243C15.5515 23.9717 15.024 27.3219 17.2186 29.5756L22.95 23.9942ZM12.2895 11.1596C10.5119 11.1596 9.07083 9.71856 9.07083 7.94092H17.0708C17.0708 5.30028 14.9302 3.15963 12.2895 3.15963V11.1596ZM1.60971 28.1464C0.546304 27.1983 0.162631 25.2839 1.49605 23.9147L7.22742 29.496C9.40715 27.2577 8.90246 23.9306 6.93361 22.1752L1.60971 28.1464ZM24.3067 31.9198C26.0768 30.1021 26.0768 27.2051 24.3067 25.3874L18.5753 30.9688C17.3206 29.6803 17.3206 27.6269 18.5753 26.3385L24.3067 31.9198ZM17.5987 31.9198C19.4365 33.807 22.4689 33.807 24.3067 31.9198L18.5753 26.3385C19.878 25.0008 22.0274 25.0008 23.3301 26.3385L17.5987 31.9198ZM12.2677 12.9257C14.0574 12.9257 15.5083 14.3765 15.5083 16.1663H7.50826C7.50826 18.7948 9.63913 20.9257 12.2677 20.9257V12.9257ZM21.5042 24.4636C19.8881 22.804 17.5117 22.5783 15.6913 23.4516L19.1517 30.6645C18.148 31.1461 16.757 31.0555 15.7728 30.0449L21.5042 24.4636Z" fill="white" mask="url(#path-8-inside-1_62173_191)"/>
<rect x="11.5" y="4" width="4" height="1.5" transform="rotate(-90 11.5 4)" fill="white"/>
<rect x="4.5" width="15.5" height="1.5" rx="0.75" fill="white"/>
</svg>

<svg width="25" height="30" fill="none" xmlns="http://www.w3.org/2000/svg"><ellipse cx="17.704" cy="9.33" rx="1.087" ry="1.085" fill="#fff"/><ellipse cx="6.831" cy="9.33" rx="1.087" ry="1.085" fill="#fff"/><ellipse cx="6.831" cy="22.351" rx="1.087" ry="1.085" fill="#fff"/><ellipse cx="12.268" cy="24.521" rx="1.087" ry="1.085" fill="#fff"/><ellipse cx="3.569" cy="15.775" rx="1.087" ry="1.085" fill="#fff"/><ellipse cx="20.966" cy="15.775" rx="1.087" ry="1.085" fill="#fff"/><ellipse cx="17.704" cy="22.351" rx="1.087" ry="1.085" fill="#fff"/><mask id="a" fill="#fff"><path fill-rule="evenodd" clip-rule="evenodd" d="M17.422 27.058a1.058 1.058 0 0 1 1.216.196l1.826 1.875a.682.682 0 0 0 .977-.95l-1.357-1.394c-.426-.438-.361-1.15.098-1.552 2.642-2.314 4.318-5.764 4.318-9.619C24.5 8.648 19.023 3 12.268 3 5.512 3 .036 8.648.036 15.614c0 3.815 1.641 7.234 4.236 9.547.452.403.513 1.11.09 1.544l-1.434 1.473a.682.682 0 1 0 .976.951l1.88-1.93a1.058 1.058 0 0 1 1.226-.191 11.878 11.878 0 0 0 5.258 1.221c1.841 0 3.587-.42 5.154-1.17Zm-5.154-.23c6.005 0 10.873-5.02 10.873-11.213S18.273 4.402 12.268 4.402c-6.005 0-10.873 5.02-10.873 11.212 0 6.193 4.868 11.213 10.873 11.213Zm-.76-11.53V7.94a.781.781 0 1 1 1.563 0v8.183c0 .443-.36.803-.803.803a.76.76 0 0 1-.76-.76V15.298Z"/></mask><path fill-rule="evenodd" clip-rule="evenodd" d="M17.422 27.058a1.058 1.058 0 0 1 1.216.196l1.826 1.875a.682.682 0 0 0 .977-.95l-1.357-1.394c-.426-.438-.361-1.15.098-1.552 2.642-2.314 4.318-5.764 4.318-9.619C24.5 8.648 19.023 3 12.268 3 5.512 3 .036 8.648.036 15.614c0 3.815 1.641 7.234 4.236 9.547.452.403.513 1.11.09 1.544l-1.434 1.473a.682.682 0 1 0 .976.951l1.88-1.93a1.058 1.058 0 0 1 1.226-.191 11.878 11.878 0 0 0 5.258 1.221c1.841 0 3.587-.42 5.154-1.17Zm-5.154-.23c6.005 0 10.873-5.02 10.873-11.213S18.273 4.402 12.268 4.402c-6.005 0-10.873 5.02-10.873 11.212 0 6.193 4.868 11.213 10.873 11.213Zm-.76-11.53V7.94a.781.781 0 1 1 1.563 0v8.183c0 .443-.36.803-.803.803a.76.76 0 0 1-.76-.76V15.298Z" fill="#fff"/><path d="m5.784 27.199 2.866 2.79-2.866-2.79Zm1.226-.191 1.765-3.59-1.765 3.59Zm-3.106 2.121L1.04 26.34l2.865 2.79Zm-.976-.95 2.865 2.79-2.865-2.79Zm17.156-1.394-2.865 2.79 2.865-2.79Zm.098-1.552-2.635-3.009 2.635 3.01Zm-15.91-.072L1.61 28.146l2.662-2.985Zm.09 1.544-2.866-2.79 2.866 2.79Zm17.079 1.473 2.866-2.79-2.866 2.79Zm-.977.951 2.866-2.79-2.866 2.79Zm-1.825-1.875-2.866 2.79 2.866-2.79Zm-1.217-.196-1.73-3.606 1.73 3.606Zm-1.65 2.987L17.6 31.92l5.731-5.582-1.826-1.874-5.731 5.58Zm8.535-4.658-1.357-1.393-5.731 5.582 1.356 1.393 5.732-5.582Zm-1.49 2.855c3.49-3.056 5.683-7.595 5.683-12.628h-8c0 2.677-1.16 5.04-2.953 6.61l5.27 6.018ZM28.5 15.614C28.5 6.556 21.348-1 12.268-1v8c4.431 0 8.232 3.74 8.232 8.614h8ZM12.268-1C3.188-1-3.964 6.556-3.964 15.614h8C4.036 10.74 7.836 7 12.268 7v-8ZM-3.964 15.614c0 4.98 2.147 9.477 5.574 12.532l5.324-5.97c-1.762-1.572-2.898-3.913-2.898-6.561h-8Zm5.46 8.3L.062 25.388l5.731 5.582 1.434-1.473-5.73-5.581ZM6.77 31.92l1.88-1.93-5.732-5.582-1.88 1.93L6.77 31.92Zm-1.525-1.323a15.878 15.878 0 0 0 7.023 1.632v-8a7.879 7.879 0 0 1-3.493-.811l-3.53 7.18Zm7.023 1.632c2.456 0 4.792-.56 6.884-1.564l-3.46-7.213c-1.041.499-2.198.777-3.424.777v8Zm0-1.402c8.33 0 14.873-6.928 14.873-15.213h-8c0 4.101-3.192 7.213-6.873 7.213v8ZM27.14 15.614C27.14 7.33 20.597.402 12.268.402v8c3.68 0 6.873 3.112 6.873 7.213h8ZM12.268.402C3.938.402-2.605 7.33-2.605 15.615h8c0-4.101 3.192-7.213 6.873-7.213v-8ZM-2.605 15.615c0 8.284 6.544 15.212 14.873 15.212v-8c-3.68 0-6.873-3.112-6.873-7.213h-8Zm11.676-.317v.543h8v-.543h-8Zm0 .543v.282h8v-.282h-8Zm6.437.325v-.325h-8v.325h8Zm0-.325v-.543h-8v.543h8Zm0-.543V11.5h-8v3.798h8Zm0-3.798V7.94h-8v3.56h8ZM9.071 7.94v3.56h8V7.94h-8Zm0 3.56v3.798h8V11.5h-8Zm3.219-8.34a4.781 4.781 0 0 0-4.782 4.78h8a3.219 3.219 0 0 1-3.218 3.22v-8ZM9.07 16.123a3.197 3.197 0 0 1 3.198-3.197v8a4.803 4.803 0 0 0 4.803-4.803h-8ZM8.65 29.99a2.943 2.943 0 0 1-3.405.607l3.53-7.179c-1.826-.898-4.227-.683-5.857.99L8.65 29.99ZM.062 31.92a4.682 4.682 0 0 0 6.708 0l-5.731-5.582a3.318 3.318 0 0 1 4.754 0L.062 31.92Zm0-6.533a4.682 4.682 0 0 0 0 6.533l5.731-5.582a3.318 3.318 0 0 1 0 4.63l-5.731-5.58Zm22.888-1.393c1.343 1.38.944 3.305-.133 4.248l-5.27-6.018c-1.995 1.748-2.523 5.098-.328 7.352l5.731-5.582ZM12.29 11.16a3.219 3.219 0 0 1-3.22-3.22h8c0-2.64-2.14-4.78-4.78-4.78v8ZM1.61 28.146c-1.064-.948-1.447-2.862-.114-4.231l5.731 5.581c2.18-2.238 1.675-5.565-.293-7.32l-5.324 5.97Zm22.697 3.774a4.682 4.682 0 0 0 0-6.533l-5.732 5.582a3.318 3.318 0 0 1 0-4.63l5.732 5.58Zm-6.708 0a4.682 4.682 0 0 0 6.708 0l-5.732-5.582a3.318 3.318 0 0 1 4.755 0L17.6 31.92Zm-5.331-18.994a3.24 3.24 0 0 1 3.24 3.24h-8a4.76 4.76 0 0 0 4.76 4.76v-8Zm9.236 11.538c-1.616-1.66-3.992-1.886-5.813-1.012l3.46 7.212a2.943 2.943 0 0 1-3.378-.62l5.731-5.58Z" fill="#fff" mask="url(#a)"/><path fill="#fff" d="M11.5 4V0H13v4z"/><rect x="4.5" width="15.5" height="1.5" rx=".75" fill="#fff"/></svg>
